X: 1771
T: April's Fool
R: jig
M: 6/8
K: Gmajor
|:D|GAB GAB|E3 EDE|GAB dBd|edB dBA|
GAB GAB|E3 EDE|BeB dBA|AGF G2:|
|:A|BAB dBd|egg gab|age dBA|B3 AGA|
B2 d dBd|e2 g gab|age dBA|AGF G2 A|
B2 d dBd|e2 g gab|age dBA|B3 AGA|
GAB GAB|E3 EDE|BeB dBA|AGF G2||

